public/avatar/hat/74.svg

<svg xmlns:xlink="http://www.w3.org/1999/xlink" height="92.9" width="100.7" xmlns="http://www.w3.org/2000/svg"><use height="12.45" transform="translate(9.55 45.7)" width="48.9" xlink:href="#a"/><defs><g id="a"><path d="M-28.55-.25q-.5-3.1 1.4-3.2l9.25-.15 3.4.65-.15 4.4q-.95 1-2.45 1.1l-8.75.25q-2.2.05-2.7-3.05" fill="#b2513b" fill-rule="evenodd" transform="translate(29.1 4.05)"/><path d="m-28.2.4 4 .2 7.05-.15 2.4-.25.1 1.25q-.55.95-1.3 1.15l-10.3.1q-.9 0-1.7-1.1L-28.2.4" fill="#99422f" fill-rule="evenodd" transform="translate(29.1 4.05)"/><path d="m-14.5-2.95-4-.6-8.9.2q-1.2 0-1.2 3.05 0 3.1 2.75 3.1l9.2-.15q1.5 0 2.3-1.2" fill="none" stroke="#782411" stroke-linecap="round" stroke-linejoin="round" transform="translate(29.1 4.05)"/><path d="M16.9-3.35q2.45-.1 2.45 2.25 0 3.65-4.4 6.65-2.6 1.8-3.55 1.85Q6.9.3.6.3q-6.7 0-11.45 7.15l-1.4.1q-1.3 0-2-.85l-.5-3.9-.1-3.4.35-1.65q.35-1.05 1.4-1.05l30-.05" fill="#7092ad" fill-rule="evenodd" transform="translate(29.1 4.05)"/><path d="m-4.5 1.55-4 3-2.6 2.9-1.5.1q-1.4.25-1.9-1.5l-.15-4.6 1.2.6 2.25.25q.6-.25 1.85-1.1Q-8.1.45-7.1.45q2.2 0 2.6 1.1M14.3 6.1l-2.9 1.3-2.35-2.8L6 2.05l2.3-.1 3.25-1.3q.95-.1 2.3.7 1.45.85 1.95.85 1.25 0 2.8-.8-1.25 2.7-4.3 4.7" fill="#9ebfd9" fill-rule="evenodd" transform="translate(29.1 4.05)"/><path d="M11.75 7.7 10.6 6.05l4.25-2q2-.9 3.75-2.65-.6 2-3.45 4.05l-3.4 2.25M-14.7 4.65l1.55 1.05 3.3.15-1.25 1.8-2.25-.05q-.6-.1-1.05-1.55l-.3-1.4" fill="#e3f3ff" fill-rule="evenodd" transform="translate(29.1 4.05)"/><path d="m11.75 7.7 3.9-2.5q3.15-2.45 3.6-5.9.35-2.65-2.75-2.65l-29.6.05q-2.2 0-1.8 3.35l.25 5.65q0 1.95 1.65 2l2.35.2" fill="none" stroke="#395d7a" stroke-linecap="round" stroke-linejoin="round" transform="translate(29.1 4.05)"/><path d="m-26.6-1.8 8.85-.3" fill="none" stroke="#d98c6c" stroke-linecap="round" stroke-linejoin="round" transform="translate(29.1 4.05)"/><path d="M-13.7-.9q.3-1.15 2.45-1.15l28.15-.4q.85-.1 1.25.7.35.8-.05 1.45" fill="none" stroke="#e6f4ff" stroke-linecap="round" stroke-linejoin="round" transform="translate(29.1 4.05)"/><path d="M18 12q5.35-7.4 11.35-7.4t11.15 7.35" fill="none" stroke="#6d808f" stroke-linecap="round" stroke-linejoin="round" stroke-width=".95"/></g></defs></svg>

<?xml version="1.0" encoding="UTF-8" standalone="no"?>
<svg xmlns:xlink="http://www.w3.org/1999/xlink" height="92.9px" width="100.7px" xmlns="http://www.w3.org/2000/svg">
  <g transform="matrix(1.0, 0.0, 0.0, 1.0, 38.65, 49.75)">
    <use height="12.45" transform="matrix(1.0, 0.0, 0.0, 1.0, -29.1, -4.05)" width="48.9" xlink:href="#shape0"/>
  </g>
  <defs>
    <g id="shape0" transform="matrix(1.0, 0.0, 0.0, 1.0, 29.1, 4.05)">
      <path d="M-28.55 -0.25 Q-29.05 -3.35 -27.15 -3.45 L-17.9 -3.6 -14.5 -2.95 -14.65 1.45 Q-15.6 2.45 -17.1 2.55 L-25.85 2.8 Q-28.05 2.85 -28.55 -0.25" fill="#b2513b" fill-rule="evenodd" stroke="none"/>
      <path d="M-28.2 0.4 L-24.2 0.6 -17.15 0.45 -14.75 0.2 -14.65 1.45 Q-15.2 2.4 -15.95 2.6 L-26.25 2.7 Q-27.15 2.7 -27.95 1.6 L-28.2 0.4" fill="#99422f" fill-rule="evenodd" stroke="none"/>
      <path d="M-14.5 -2.95 L-18.5 -3.55 -27.4 -3.35 Q-28.6 -3.35 -28.6 -0.3 -28.6 2.8 -25.85 2.8 L-16.65 2.65 Q-15.15 2.65 -14.35 1.45" fill="none" stroke="#782411" stroke-linecap="round" stroke-linejoin="round" stroke-width="1.0"/>
      <path d="M16.9 -3.35 Q19.35 -3.45 19.35 -1.1 19.35 2.55 14.95 5.55 12.35 7.35 11.4 7.4 6.9 0.3 0.6 0.3 -6.1 0.3 -10.85 7.45 L-12.25 7.55 Q-13.55 7.55 -14.25 6.7 L-14.75 2.8 -14.85 -0.6 -14.5 -2.25 Q-14.15 -3.3 -13.1 -3.3 L16.9 -3.35" fill="#7092ad" fill-rule="evenodd" stroke="none"/>
      <path d="M-4.5 1.55 L-8.5 4.55 -11.1 7.45 -12.6 7.55 Q-14.0 7.8 -14.5 6.05 L-14.65 1.45 -13.45 2.05 -11.2 2.3 Q-10.6 2.05 -9.35 1.2 -8.1 0.45 -7.1 0.45 -4.9 0.45 -4.5 1.55" fill="#9ebfd9" fill-rule="evenodd" stroke="none"/>
      <path d="M14.3 6.1 L11.4 7.4 9.05 4.6 6.0 2.05 8.3 1.95 11.55 0.65 Q12.5 0.55 13.85 1.35 15.3 2.2 15.8 2.2 17.05 2.2 18.6 1.4 17.35 4.1 14.3 6.1" fill="#9ebfd9" fill-rule="evenodd" stroke="none"/>
      <path d="M11.75 7.7 L10.6 6.05 14.85 4.05 Q16.85 3.15 18.6 1.4 18.0 3.4 15.15 5.45 L11.75 7.7" fill="#e3f3ff" fill-rule="evenodd" stroke="none"/>
      <path d="M-14.7 4.65 L-13.15 5.7 -9.85 5.85 -11.1 7.65 -13.35 7.6 Q-13.95 7.5 -14.4 6.05 L-14.7 4.65" fill="#e3f3ff" fill-rule="evenodd" stroke="none"/>
      <path d="M11.75 7.7 L15.65 5.2 Q18.8 2.75 19.25 -0.7 19.6 -3.35 16.5 -3.35 L-13.1 -3.3 Q-15.3 -3.3 -14.9 0.05 L-14.65 5.7 Q-14.65 7.65 -13.0 7.7 L-10.65 7.9" fill="none" stroke="#395d7a" stroke-linecap="round" stroke-linejoin="round" stroke-width="1.0"/>
      <path d="M-26.6 -1.8 L-17.75 -2.1" fill="none" stroke="#d98c6c" stroke-linecap="round" stroke-linejoin="round" stroke-width="1.0"/>
      <path d="M-13.7 -0.9 Q-13.4 -2.05 -11.25 -2.05 L16.9 -2.45 Q17.75 -2.55 18.15 -1.75 18.5 -0.95 18.1 -0.3" fill="none" stroke="#e6f4ff" stroke-linecap="round" stroke-linejoin="round" stroke-width="1.0"/>
      <path d="M-11.1 7.95 Q-5.75 0.55 0.25 0.55 6.25 0.55 11.4 7.9" fill="none" stroke="#6d808f" stroke-linecap="round" stroke-linejoin="round" stroke-width="0.9500000000000001"/>
    </g>
  </defs>
</svg>
